X: 104203
T: JESSIE SMITH
Q:"Strathspey."
R: Strathspey.
%R:strathspey
Z: 2017 by John Chambers <jc:trillian.mit.edu>
B: Kerr's Merrie Melodies v.1 p.4 s.2 #3
M: C
L: 1/16
K: D
|: ud2 |\
AF3 F3uE D3A GFED | AF3 F3A B4 (B2d2) |\
AF3 F3E D3A GFED | GB3 A3F E4 E2 :|\
uA2 |\
vd4 uf3ud vB3ue dcBA | d3ef3d B4 (B3A) |
d3ef3d B3ue dcBA | d3B (AF3) E4- E3c |\
d4 f3d B3ue dcBA | d3ef3d B4- B3g |\
(3f2e2d2 (3c2d2e2 (3d2c2B2 (3A2B2c2 | d3B (AF3) E4- E2 |]

%%sep 1 1 500
%%sep 1 1 500

